assets/svgs/icon-chair.svg

<svg width="32" height="32" viewBox="0 0 32 32" fill="none" xmlns="http://www.w3.org/2000/svg" class="svg__icon-chair">
  <path
    d="M24.2699 15.6823c0 .5738-.4651 1.039-1.039 1.039H8.69869c-.57385 0-1.03903-.4652-1.03903-1.039V5.21605c0-.57385.4652-1.03905 1.03904-1.03905h14.5322c.5738 0 1.039.4652 1.039 1.03904V15.6823Z"
    fill="#fff" stroke="#0B6AB7" stroke-width="1.25" stroke-linecap="round" stroke-linejoin="round" class="svg__stroke--primary-blue-03 svg__fill--white"/>
  <path
    d="M27.7591 23.2575V12.7912c0-.5738-.4651-1.039-1.039-1.039H23.279c-.5738 0-1.039.4652-1.039 1.039v2.8224c0 .5739-.4652 1.0391-1.0391 1.0391H11.1877c-.5739 0-1.039-.4652-1.039-1.0391v-2.8224c0-.5738-.46524-1.039-1.03909-1.039H5.21556c-.57385 0-1.03905.4652-1.03905 1.039v10.4663c0 .5738.46382 1.039 1.03767 1.039H26.7215c.5738 0 1.0376-.4652 1.0376-1.039Z"
    fill="#fff" stroke="#0B6AB7" stroke-width="1.25" stroke-linecap="round" stroke-linejoin="round" class="svg__stroke--primary-blue-03 svg__fill--white" />
  <path
    d="m20.3317 28.9017-.8566-4.6051h2.7652l-.8566 4.6051c-.0229.1231-.1302.2123-.2554.2123h-.5412c-.1252 0-.2325-.0892-.2554-.2123Z"
    stroke="#0B6AB7" stroke-width="1.25" class="svg__stroke--primary-blue-03" />
  <path
    d="m9.65619 28.9017-.85654-4.6051h2.76515l-.8566 4.6051c-.0229.1231-.1302.2123-.2554.2123h-.54122c-.12515 0-.2325-.0892-.25539-.2123Z"
    stroke="#0B6AB7" stroke-width="1.25" class="svg__stroke--primary-blue-03" />
  <path
    d="M24.9281 20.7939c0 .5738-.4652 1.039-1.0391 1.039H8.04665c-.57385 0-1.03904-.4652-1.03904-1.039v-3.2981c0-.5738.46519-1.039 1.03904-1.039H23.889c.5739 0 1.0391.4652 1.0391 1.039v3.2981Z"
    fill="#fff" stroke="#0B6AB7" stroke-width="1.25" stroke-linecap="round" stroke-linejoin="round" class="svg__stroke--primary-blue-03 svg__fill--white" />
  <path d="M5.58511 4.51611V3.5391c0-.57384.4652-1.03904 1.03905-1.03904h.52899" stroke="#0AA5FF" stroke-width="1.25"
    stroke-linecap="round" stroke-linejoin="round" class="svg__stroke--default-cyan-03" />
  <path d="M29.4716 23.7927v1.1638c0 .5738-.4651 1.039-1.039 1.039h-.529" stroke="#0AA5FF" stroke-width="1.25"
    stroke-linecap="round" stroke-linejoin="round" class="svg__stroke--default-cyan-03" />
</svg>

<svg width="32" height="32" viewBox="0 0 32 32" fill="none" xmlns="http://www.w3.org/2000/svg" class="svg__icon-chair">
<path d="M24.2699 15.6823C24.2699 16.2561 23.8048 16.7213 23.2309 16.7213C18.4297 16.7213 13.4999 16.7213 8.6987 16.7213C8.12485 16.7213 7.65967 16.2561 7.65967 15.6823L7.65967 5.21605C7.65967 4.6422 8.12486 4.177 8.69871 4.177L16.1993 4.177L23.2309 4.177C23.8048 4.177 24.2699 4.6422 24.2699 5.21604L24.2699 15.6823Z" fill="white" stroke="#0B6AB7" stroke-width="1.25" stroke-linecap="round" stroke-linejoin="round" class="svg__stroke--primary-blue-03"/>
<path d="M27.7591 23.2575L27.7591 12.7912C27.7591 12.2174 27.294 11.7522 26.7201 11.7522H23.279C22.7052 11.7522 22.24 12.2174 22.24 12.7912V14.2024V15.6136C22.24 16.1875 21.7748 16.6527 21.2009 16.6527L11.1877 16.6527C10.6138 16.6527 10.1487 16.1875 10.1487 15.6136V12.7912C10.1487 12.2174 9.68346 11.7522 9.10961 11.7522H5.21556C4.64171 11.7522 4.17651 12.2174 4.17651 12.7912L4.17651 18.0244L4.17651 23.2575C4.17651 23.8313 4.64033 24.2965 5.21418 24.2965L26.7215 24.2965C27.2953 24.2965 27.7591 23.8313 27.7591 23.2575Z" fill="white" stroke="#0B6AB7" stroke-width="1.25" stroke-linecap="round" stroke-linejoin="round" class="svg__stroke--primary-blue-03"/>
<path d="M20.3318 28.9017L19.4752 24.2966H22.2403L21.3838 28.9017C21.3609 29.0248 21.2536 29.114 21.1284 29.114H20.5871C20.462 29.114 20.3546 29.0248 20.3318 28.9017Z" stroke="#0B6AB7" stroke-width="1.25" class="svg__stroke--primary-blue-03"/>
<path d="M9.65623 28.9017L8.79968 24.2966H11.5648L10.7083 28.9017C10.6854 29.0248 10.578 29.114 10.4529 29.114H9.91161C9.78646 29.114 9.67911 29.0248 9.65623 28.9017Z" stroke="#0B6AB7" stroke-width="1.25" class="svg__stroke--primary-blue-03"/>
<path d="M24.928 20.7939C24.928 21.3677 24.4628 21.8329 23.889 21.8329C18.6082 21.8329 13.3274 21.8329 8.04661 21.8329C7.47276 21.8329 7.00757 21.3677 7.00757 20.7939L7.00757 17.4958C7.00757 16.922 7.47276 16.4568 8.04661 16.4568L23.889 16.4568C24.4628 16.4568 24.928 16.922 24.928 17.4958V20.7939Z" fill="white" stroke="#0B6AB7" stroke-width="1.25" stroke-linecap="round" stroke-linejoin="round" class="svg__stroke--primary-blue-03"/>
<path d="M5.58508 4.51611L5.58508 3.5391C5.58508 2.96526 6.05028 2.50006 6.62412 2.50006L7.15312 2.50006" stroke="#0AA5FF" stroke-width="1.25" stroke-linecap="round" stroke-linejoin="round" class="svg__stroke--default-cyan-03"/>
<path d="M29.4717 23.7927L29.4717 24.9565C29.4717 25.5303 29.0065 25.9955 28.4326 25.9955L27.9036 25.9955" stroke="#0AA5FF" stroke-width="1.25" stroke-linecap="round" stroke-linejoin="round" class="svg__stroke--default-cyan-03"/>
</svg>
